X: 1776
T: Orley Benson's 2nd Figure, 1st Set
B: australian traditional tunes wiki
M:2/4
L:1/16
R: Set Tune
Q: 1/4=100
K:C
V:1 
F4||"C"E2G2 c2e2 |g4a4|"Am7"g2eg e2c2|A4-A2BA|"G"G2A2 B2c2|d4e4|d2Bd B2A2|G6F2|
"C"E2G2 c2e2|g4a4|"Am7"g2eg e2c2|A4-A2BA|"C"G2c2 e2G2|"G7"A4d2AB|"C"c8|c6d2||
"C"e4G2Bd|e4-e2ge|"Em7"d4G2B2|d8"Dm7"|c4B2d2|A2BAG4|"G7"A2G2 A2B2|"C"c4G2c2|
"C"e4G2Bd|e4-e2ge|"Em7"d4G2B2|d8|"Dm7"c4B2c2|"G7"g2f2 A2B2|"C"c8|c6||
% abcbook-tune_id 6342d53ab8105ec50f2e33a1


% abcbook-boost 0
% abcbook-tablature 
% abcbook-transpose 
% abcbook-lastupdated 1665324383200
% abcbook-soundfonts 
% abcbook-repeats 1
% NFF Book 2014

